svgs/solid/whale.svg

<svg xmlns="http://www.w3.org/2000/svg" viewBox="0 0 640 512"><!--! Font Awesome Pro 6.0.0-alpha3 by @fontawesome - https://fontawesome.com License - https://fontawesome.com/license (Commercial License) --><path d="M480 128c-91.09 0-176.7 35.47-241.1 99.87l-85.66 82.69c-6.312 6.094-14.62 9.437-23.41 9.437C111.2 320 96 304.8 96 286.2c0-31.56 12.28-61.2 34.58-83.52l9.811-9.811l56.75 13.61C207.6 208.6 218.4 205.3 226 197.7l57.28-57.28c9.016-9.016 4.332-24.48-8.221-26.96L191.3 96.7L174.5 12.9C172 .3524 156.6-4.333 147.6 4.682L90.28 61.96C82.68 69.56 79.41 80.43 81.53 90.86l13.61 56.74L49.13 193.6C17.44 225.3 0 267.4 0 312.3c0 92.5 75.25 167.7 167.8 167.7H544c52.94 0 96-43.06 96-95.1V288C640 199.8 568.2 128 480 128zM384 312c-13.25 0-24-10.75-24-24c0-13.26 10.75-24 24-24s24 10.74 24 24C408 301.3 397.3 312 384 312z"/></svg>

<svg xmlns="http://www.w3.org/2000/svg" viewBox="0 0 640 512"><!-- Font Awesome Pro 6.0.0-alpha2 by @fontawesome - https://fontawesome.com License - https://fontawesome.com/license (Commercial License) --><path d="M480 128C388.906 128 303.281 163.469 238.875 227.875L153.219 310.562C146.906 316.656 138.594 320 129.812 320C111.156 320 96 304.844 96 286.188C96 254.631 108.277 224.982 130.582 202.67L140.393 192.859L197.139 206.473C207.568 208.592 218.439 205.324 226.041 197.723L283.316 140.447C292.332 131.432 287.648 115.963 275.096 113.488L191.324 96.699L191.301 96.676L174.51 12.902C172.035 0.352 156.568 -4.334 147.553 4.682L90.277 61.957C82.676 69.561 79.406 80.43 81.527 90.861L95.139 147.605L57.371 185.371L57.377 185.373L49.125 193.625C17.438 225.312 0 267.438 0 312.25C0 404.75 75.25 480 167.75 480H544C596.938 480 640 436.938 640 384V288C640 199.781 568.219 128 480 128ZM384 312C370.746 312 360 301.254 360 288C360 274.744 370.746 264 384 264S408 274.744 408 288C408 301.254 397.254 312 384 312Z"/></svg>
